43114/0x88128fd4b259552a9a1d457f435a6527aab72d42.svg

<svg width="600" height="600" fill="none" xmlns="http://www.w3.org/2000/svg"><circle cx="300" cy="300" r="300" fill="url(#paint0_linear)"/><path d="M152.339 390V248.805l107.077 80.58V390h27.338v-66.299c0-5.01-2.354-9.73-6.358-12.742l-129.859-97.725c-10.51-7.909-25.537-.411-25.537 12.743V390h27.339zM448.48 390V248.805l-107.077 80.58V390h-27.338v-66.299c0-5.01 2.354-9.73 6.358-12.742l129.859-97.725c10.51-7.909 25.537-.411 25.537 12.743V390H448.48z" fill="#fff"/><defs><linearGradient id="paint0_linear" x1="300" y1="0" x2="300" y2="600" gradientUnits="userSpaceOnUse"><stop stop-color="#4FA89B"/><stop offset="1" stop-color="#6ACEBB"/></linearGradient></defs></svg>

<svg xmlns="http://www.w3.org/2000/svg" xmlns:xlink="http://www.w3.org/1999/xlink" viewBox="0 0 600 600"><defs><style>.cls-1{fill:url(#linear-gradient);}.cls-2{fill:#fff;}</style><linearGradient id="linear-gradient" x1="300" y1="602" x2="300" y2="2" gradientTransform="matrix(1, 0, 0, -1, 0, 602)" gradientUnits="userSpaceOnUse"><stop offset="0" stop-color="#4fa89b"/><stop offset="1" stop-color="#6acebb"/></linearGradient></defs><title>Asset 1</title><g id="Layer_2" data-name="Layer 2"><g id="Layer_1-2" data-name="Layer 1"><circle class="cls-1" cx="300" cy="300" r="300"/><path class="cls-2" d="M152.34,390V248.8l107.08,80.59V390h27.33V323.7A15.94,15.94,0,0,0,280.4,311L150.54,213.23A16,16,0,0,0,125,226V390Zm296.14,0V248.8L341.4,329.39V390H314.07V323.7A15.94,15.94,0,0,1,320.42,311l129.86-97.73A16,16,0,0,1,475.82,226V390Z"/></g></g></svg>
